X: 7129
T: Christmas, The
R: polka
M: 2/4
K: Gmajor
|:BG DB,|CE E/D/C|B,D GA/B/|cB AG/A/|
BG DB,|CE D>C|B,D GA/B/|AG G>A:|
|:Bd dB|cd ed|Bd G>A|BA AG/A/|
B/A/B/c/ dG|cded|1 Bd A/B/c/A/|BG G>A:|2 Bd A/B/c/A/|BG G2||

